svg/gift_off_outline.svg

<svg xmlns="http://www.w3.org/2000/svg" viewBox="0 0 24 24"><path d="M21 6h-3.17A3 3 0 0 0 18 5c0-1.66-1.34-3-3-3-1 0-1.88.5-2.43 1.24v-.01L12 4l-.57-.77v.01A3.03 3.03 0 0 0 9 2c-1.03 0-1.94.5-2.5 1.32l1.53 1.51C8.12 4.36 8.5 4 9 4c.55 0 1 .45 1 1 0 .5-.36.88-.83.97L13 9.8V8h8v2h-7.8l2 2H20v4.8l2 2V12c.55 0 1-.45 1-1V8a2 2 0 0 0-2-2m-6 0c-.55 0-1-.45-1-1s.45-1 1-1 1 .45 1 1-.45 1-1 1M1.11 3l3 3H3c-1.1 0-2 .9-2 2v3c0 .55.45 1 1 1v8a2 2 0 0 0 2 2h16.1l1.46 1.45 1.27-1.27L2.39 1.73zM13 14.89 18.11 20H13zm-2-2V20H4v-8h6.11zM8.11 10H3V8h3.11z"/></svg>

<?xml version="1.0" encoding="UTF-8"?><!DOCTYPE svg PUBLIC "-//W3C//DTD SVG 1.1//EN" "http://www.w3.org/Graphics/SVG/1.1/DTD/svg11.dtd"><svg xmlns="http://www.w3.org/2000/svg" xmlns:xlink="http://www.w3.org/1999/xlink" version="1.1" id="mdi-gift-off-outline" width="24" height="24" viewBox="0 0 24 24"><path d="M21 6H17.83C17.94 5.69 18 5.35 18 5C18 3.34 16.66 2 15 2C14 2 13.12 2.5 12.57 3.24V3.23L12 4L11.43 3.23V3.24C10.88 2.5 10 2 9 2C7.97 2 7.06 2.5 6.5 3.32L8.03 4.83C8.12 4.36 8.5 4 9 4C9.55 4 10 4.45 10 5C10 5.5 9.64 5.88 9.17 5.97L13 9.8V8H21V10H13.2L15.2 12H20V16.8L22 18.8V12C22.55 12 23 11.55 23 11V8C23 6.9 22.11 6 21 6M15 6C14.45 6 14 5.55 14 5S14.45 4 15 4 16 4.45 16 5 15.55 6 15 6M1.11 3L4.11 6H3C1.9 6 1 6.9 1 8V11C1 11.55 1.45 12 2 12V20C2 21.11 2.9 22 4 22H20C20.03 22 20.07 22 20.1 22L21.56 23.45L22.83 22.18L2.39 1.73L1.11 3M13 14.89L18.11 20H13V14.89M11 12.89V20H4V12H10.11L11 12.89M8.11 10H3V8H6.11L8.11 10Z" /></svg>
